lib/brands/icons/eslint.svg

<svg xmlns="http://www.w3.org/2000/svg" fill="none" aria-hidden="true" viewBox="0 0 48 48"><g id="eslint-Icon"><g id="Group"><path id="Vector" fill="#8080F2" d="M16.9638 19.5182L23.794 15.5748C23.9649 15.4761 24.1756 15.4761 24.3465 15.5748L31.1769 19.5182C31.3476 19.6169 31.4531 19.7992 31.4531 19.9967V27.8834C31.4531 28.0807 31.3476 28.2632 31.1769 28.3621L24.3465 32.3055C24.1756 32.4042 23.9649 32.4042 23.794 32.3055L16.9638 28.3621C16.7928 28.2634 16.6875 28.0809 16.6875 27.8834V19.9967C16.6876 19.7992 16.793 19.6169 16.9638 19.5182Z"/><path id="Vector_2" fill="#4B32C3" d="M41.7773 23.2937L33.6079 9.08117C33.3112 8.56729 32.763 8.18823 32.1696 8.18823H15.8305C15.237 8.18823 14.6887 8.56729 14.392 9.08117L6.22256 23.2624C5.92581 23.7764 5.92581 24.4251 6.22256 24.9391L14.392 39.0352C14.6887 39.549 15.237 39.8118 15.8305 39.8118H32.1695C32.7629 39.8118 33.3112 39.5569 33.6078 39.0429L41.7772 24.9239C42.0742 24.4101 42.0742 23.8076 41.7773 23.2937ZM35.0126 30.128C35.0126 30.337 34.8869 30.5303 34.7057 30.6349L24.2997 36.6387C24.1187 36.7431 23.892 36.7431 23.711 36.6387L13.2969 30.6349C13.1159 30.5303 12.9892 30.3371 12.9892 30.128V18.1203C12.9892 17.9112 13.114 17.7181 13.2952 17.6135L23.7008 11.6096C23.8818 11.505 24.1082 11.505 24.2892 11.6096L34.704 17.6135C34.8852 17.7181 35.0126 17.9112 35.0126 18.1203V30.128Z"/></g></g></svg>

<svg xmlns="http://www.w3.org/2000/svg" fill="none" aria-hidden="true" viewBox="0 0 48 48"><path fill="#8080F2" d="m16.964 19.518 6.83-3.943a.552.552 0 0 1 .552 0l6.83 3.943a.551.551 0 0 1 .277.479v7.886c0 .198-.105.38-.276.48l-6.83 3.943a.552.552 0 0 1-.553 0l-6.83-3.944a.553.553 0 0 1-.276-.479v-7.886c0-.198.105-.38.276-.479Z"/><path fill="#4B32C3" d="M41.777 23.294 33.607 9.08c-.296-.514-.844-.893-1.437-.893H15.83c-.593 0-1.141.38-1.438.893l-8.17 14.181a1.69 1.69 0 0 0 0 1.677l8.17 14.096c.297.514.845.777 1.439.777h16.338c.594 0 1.142-.255 1.439-.77l8.17-14.118a1.603 1.603 0 0 0 0-1.63Zm-6.764 6.834a.599.599 0 0 1-.307.507L24.3 36.639a.592.592 0 0 1-.589 0l-10.414-6.004a.6.6 0 0 1-.308-.507V18.12a.6.6 0 0 1 .306-.507l10.406-6.003a.59.59 0 0 1 .588 0l10.415 6.003a.6.6 0 0 1 .309.507v12.008Z"/></svg>
